src/icons/logos/seo.svg

<svg xmlns="http://www.w3.org/2000/svg" width="220" height="220" fill="none">
    <path fill="#000"
        d="m146.666 55 20.992 20.992-44.733 44.733-36.667-36.667-67.925 68.017L31.258 165l55-55 36.667 36.667 57.75-57.659L201.666 110V55h-55Z" />
</svg>

<svg width="220" height="220" viewBox="0 0 220 220" fill="none" xmlns="http://www.w3.org/2000/svg">
<path d="M146.666 55L167.658 75.9917L122.925 120.725L86.258 84.0583L18.333 152.075L31.258 165L86.258 110L122.925 146.667L180.675 89.0083L201.666 110V55H146.666Z" fill="black"/>
</svg>
